X:1
T:099 - RessurreiÃ§Ã£o
T:Letra: Robert Lowry (1874)
T:Trad.: Ricardo Pitrowsky (1891-1965)
T:MÃºsica: Robert Lowry (1874)
M:4/4
L:1/8
K:Bbmaj
V:1
"Bb"F4 F2 G2| G2 F2 F4| "F7"F4 E2 G2| "Bb"G4 F4| "Eb"G4 A2 B2| "Bb"B2 F2 F4| "Gm"G4 "C7"F2 =E2| "F7"F8|| "Bb"B,2 B,3/2B,/2 D2 F3/2F/2| B6 B3/2c/2| d2 B2 "Eb"c>B A>G| "Bb"F6 A3/2B/2| "F"c2 c2 c>B c>d| "Eb"B2 G2 "Bb"F2 F3/2F/2| "Eb"G2 G2 "C7"G>c c>B| "F7"A2 B2 c2 F3/2F/2| "Bb"d6 c3/2B/2| "Eb"e6 d3/2c/2| "Bb/F"B2 F2 "F7"d2 c2| "Bb"B8|]
w:1.~Eis mor-too Sal-va-dor Na se-pul-tu-ra! Mas com po-der, vi-gor, Res-sus-ci-tou. Da se-pul-tu-ra sa-iu! Com tri-un-foe glÃ³-ria res-sur-giu! Res-sur-giu, ven-cen-doa mor-teeo seu po-der; Po-dea-go-raa to-dos vi-da con-ce-der! Res-sur-giu! Res-sur-giu! A-le-lu-ia! Res-sur-giu!
w:2.~To-ma-ram pre-cau-Ã§Ã£o Com seu se-pul-cro; Mas tu-do foi em vÃ£o Pa-rao re-ter.
w:3.~A mor-te con-quis-tou Com gran-de glÃ³-ria! Oh, gra-Ã§as, al-can-Ã§ou Vi-dae-ter-nal.            				
W:
W:
W:1. Eis morto o Salvador
W:Na sepultura!
W:Mas com poder, vigor,
W:Ressuscitou.
W:
W:(Estribilho)
W:Da sepultura saiu!
W:Com triunfo e glÃ³ria ressurgiu!
W:Ressurgiu, vencendo a morte e o seu poder;  
W:Pode agora a todos vida conceder!
W:Ressurgiu! Ressurgiu!
W:Aleluia! Ressurgiu!
W:
W:
W:
W:2. Tomaram precauÃ§Ã£o
W:Com seu sepulcro;
W:Mas tudo foi em vÃ£o
W:Para o reter.
W:
W:3. A morte conquistou
W:Com grande glÃ³ria!
W:Oh, graÃ§as, alcanÃ§ou
W:Vida eternal.
W:

